shared/images/iconfont/70-kb-iconfont-nav-wallets-24.svg

<?xml version="1.0" encoding="UTF-8"?>
<svg width="24px" height="24px" viewBox="0 0 24 24" version="1.1" xmlns="http://www.w3.org/2000/svg" xmlns:xlink="http://www.w3.org/1999/xlink">
    <!-- Generator: sketchtool 54.1 (76490) - https://sketchapp.com -->
    <title>7A0B2530-A165-4B4B-A6D8-A1F8577D14DA</title>
    <desc>Created with sketchtool.</desc>
    <g id="Symbols" stroke="none" stroke-width="1" fill="none" fill-rule="evenodd">
        <g id="70-kb-iconfont-nav-wallets-24">
            <g>
                <rect id="icon-area" opacity="0" x="0" y="0" width="24" height="24"></rect>
                <path d="M23,14 L17,14 C15.3431458,14 14,15.3431458 14,17 C14,18.6568542 15.3431458,20 17,20 L23,20 L23,21.0909091 C22.9999471,22.1452491 22.1418572,22.9999473 21.0833333,23 L3.875,23 C2.28721423,22.9999209 1.00007938,21.7178736 1,20.1363636 L1,4.86363636 C1.00473628,3.28405187 2.28914732,2.00471756 3.875,2 L20.0416667,2 C20.5709396,2 21,2.42736456 21,2.95454545 C21,3.48172635 20.5709396,4 20.0416667,4 L4.83333333,4 C4.30406045,4 3.875,4.33645547 3.875,4.86363636 C3.875,5.39081726 4.30406045,6 4.83333333,6 L21.0833333,6 C22.1418572,6.00005271 22.9999471,6.67293277 23,7.72727273 L23,14 Z M16.7529762,16.9920949 C16.7529762,16.3061048 17.3112878,15.75 18,15.75 C18.6887122,15.75 19.2470238,16.3061048 19.2470238,16.9920949 C19.2469894,17.6780707 18.688698,18.2341554 18,18.2341897 C17.3112878,18.2341897 16.7529762,17.6780849 16.7529762,16.9920949 Z" id="wallet" fill="#000000"></path>
            </g>
        </g>
    </g>
</svg>

<svg xmlns="http://www.w3.org/2000/svg" width="24" height="24" viewBox="0 0 24 24">
    <path fill="#000" fill-rule="nonzero" d="M23 14h-6a3 3 0 0 0 0 6h6v1.09A1.913 1.913 0 0 1 21.083 23H3.875A2.87 2.87 0 0 1 1 20.136V4.864A2.878 2.878 0 0 1 3.875 2h16.167c.529 0 .958.427.958.955C21 3.482 20.57 4 20.042 4H4.833c-.529 0-.958.336-.958.864 0 .527.43 1.136.958 1.136h16.25C22.142 6 23 6.673 23 7.727V14zm-6.247 2.992c0-.686.558-1.242 1.247-1.242.689 0 1.247.556 1.247 1.242 0 .686-.558 1.242-1.247 1.242a1.245 1.245 0 0 1-1.247-1.242z"/>
</svg>
